X:85
T:Ships Are Sailing, The
S:The Session: https://thesession.org/tunes/543#setting55396
C:Traditional
R:reel
K:Edor
M:4/4
L:1/8
Q:1/4=120
ed|:"Em"Beed BcdB|"D"ADFD ADFD|"Em"EDEF GFGA|"G"Beef "D"gfed|
|"Em"Beed BcdB|"D"ADFD ADFD|"Em"EDEF GFGA|1 "D"Beed "Em"e2 ed:|2 "D"Beed "Em"e2 ef||
|:"Em"gfga bgeg|"D"fefg afdf|"Em"gfga bgeg|"D"fedf "Em"e2ef|
|"Em"gfga bgeg|"D"fefg afdf|"Em"g2bg "D"f2af|1 "C"edef "D"gf ef :|2 "C"edef "Em" e4 ||

